file/jewel-osco.svg

<?xml version="1.0" encoding="UTF-8" standalone="no"?>
<!DOCTYPE svg PUBLIC "-//W3C//DTD SVG 1.1//EN" "http://www.w3.org/Graphics/SVG/1.1/DTD/svg11.dtd">
<svg width="100%" height="100%" viewBox="0 0 560 400" version="1.1" xmlns="http://www.w3.org/2000/svg" xmlns:xlink="http://www.w3.org/1999/xlink" xml:space="preserve" xmlns:serif="http://www.serif.com/" style="fill-rule:evenodd;clip-rule:evenodd;stroke-linejoin:round;stroke-miterlimit:1.41421;">
    <g id="red" transform="matrix(0.844691,0,0,0.844691,111.071,73.2258)">
        <path d="M317.63,241.47C287.13,258.17 258.13,266.47 209.03,268.47C182.13,268.07 164.43,267.77 148.93,265.27C120.93,260.77 106.93,253.17 106.93,253.17C106.93,253.17 146.83,263.67 206.83,259.97C288.83,254.87 358.63,213.97 358.53,155.97C358.43,121.37 335.83,84.27 306.83,66.67C278.93,49.67 257.03,43.67 236.83,39.17C211.73,33.47 169.93,33.57 159.13,35.37C218.93,25.57 269.73,36.07 315.53,58.67C350.23,75.77 376.93,115.77 379.03,145.07C382.13,186.37 360.13,218.17 317.63,241.47ZM308.83,229.07C299.53,232.97 245.93,251.37 187.23,250.67C156.63,250.27 113.63,240.87 87.53,225.97C60.33,210.47 40.33,179.17 39.43,147.57C37.93,94.47 97.83,50.77 173.13,44.27C204.33,41.57 226.23,45.57 240.83,47.47C262.23,50.27 301.13,64.97 301.13,64.97C301.13,64.97 243.33,32.27 177.53,37.07C132.33,40.27 103.03,49.87 75.33,65.97C36.73,88.37 17.33,118.07 21.13,155.77C23.83,182.47 45.13,216.47 75.73,234.47C99.73,248.57 135.03,258.47 186.73,258.47C235.83,258.37 276.43,242.77 308.83,229.07ZM122.53,130.47C126.63,113.77 134.53,79.07 134.53,79.07L111.13,79.07C111.13,79.07 104.23,109.27 100.13,123.97C99.43,126.47 98.23,129.47 95.53,129.87C87.93,130.07 72.83,130.07 72.83,130.07L69.23,146.17C69.23,146.17 101.03,146.37 105.43,144.87C113.03,142.87 119.33,137.97 122.53,130.47ZM146.73,148.37C142.13,148.37 138.13,146.97 135.23,144.87C131.43,142.07 129.53,137.87 129.13,133.77C129.13,132.97 129.13,130.97 129.43,128.07C129.83,125.37 130.63,121.67 132.03,118.07C139.03,99.87 152.03,98.97 157.43,98.97C166.63,98.97 171.43,103.57 173.43,108.17C176.23,114.97 174.93,121.27 173.43,126.77L142.03,126.77L142.03,126.87C141.23,129.37 140.73,131.97 141.93,134.37C143.93,138.17 147.73,139.07 151.33,138.47C154.93,137.77 158.43,135.67 159.53,133.27L171.53,133.27C167.53,142.27 155.03,148.37 146.73,148.37ZM143.83,118.77L162.53,118.77C163.23,115.27 163.33,109.37 156.13,109.07C148.73,108.77 144.73,114.37 143.83,118.77ZM212.13,146.27L224.63,146.27L247.83,99.77L235.23,99.77L220.83,132.37L221.03,99.77L208.43,99.77L194.53,132.37L194.23,99.77L181.53,99.77L184.63,146.27L197.23,146.27L211.73,113.57L212.13,146.27ZM261.23,148.37C256.63,148.37 252.53,146.97 249.73,144.87C246.03,142.07 244.03,137.87 243.63,133.77C243.63,132.97 243.63,130.97 243.93,128.07C244.33,125.37 245.13,121.67 246.53,118.07C253.53,99.87 266.53,98.97 271.93,98.97C281.13,98.97 285.93,103.57 287.93,108.17C290.73,114.97 289.33,121.27 287.93,126.77L256.53,126.77L256.53,126.87C255.73,129.37 255.23,131.97 256.43,134.37C258.43,138.17 262.23,139.07 265.83,138.47C269.43,137.77 272.93,135.67 274.03,133.27L286.03,133.27C282.03,142.27 269.53,148.37 261.23,148.37ZM258.33,118.77L277.03,118.77C277.83,115.27 277.83,109.37 270.63,109.07C263.23,108.77 259.23,114.37 258.33,118.77ZM291.43,146.27L303.63,146.27L317.13,83.67L304.93,83.67L291.43,146.27ZM87.43,185.07C93.93,156.17 117.63,152.67 126.33,152.67C135.03,152.67 157.13,156.17 150.53,185.07C143.93,214.07 120.33,217.57 111.63,217.57C102.93,217.57 80.83,214.07 87.43,185.07ZM114.03,206.67C121.43,206.67 132.83,202.37 136.73,185.07C140.63,167.77 131.13,163.57 123.73,163.57C116.33,163.57 104.93,167.87 101.03,185.07C97.23,202.47 106.63,206.67 114.03,206.67ZM199.83,184.17C201.73,171.27 190.83,169.07 181.33,169.07C166.13,169.07 159.73,177.67 158.23,184.37C154.33,201.47 185.83,195.77 184.13,203.37C183.73,205.07 181.53,208.07 174.93,208.07C166.83,208.07 164.93,205.27 165.83,201.37L152.63,201.37C150.33,213.57 161.43,217.17 172.53,217.17C180.13,217.17 194.43,214.77 197.43,201.47C201.23,184.67 169.63,189.87 171.23,182.67C171.73,180.67 173.13,178.17 180.13,178.17C187.03,178.17 187.43,181.27 187.33,184.17L199.83,184.17ZM251.23,186.67C253.33,172.47 241.43,169.17 233.73,169.17C217.23,169.17 207.93,179.67 204.63,194.47C202.53,204.07 203.73,217.27 222.03,217.27C239.93,217.27 246.83,204.07 248.33,199.37L235.13,199.37C234.63,201.57 231.13,207.37 224.63,207.37C214.93,207.37 217.03,197.47 218.13,192.47C219.43,186.77 223.33,179.27 231.33,179.27C237.43,178.87 238.33,183.67 238.23,186.67L251.23,186.67ZM254.83,193.17C258.53,176.67 272.13,169.07 285.23,169.07C298.33,169.07 308.43,176.57 304.73,193.17C300.93,209.57 287.43,217.17 274.33,217.17C261.23,217.17 251.13,209.57 254.83,193.17ZM276.63,207.07C286.53,207.07 290.13,198.97 291.53,193.17C292.83,187.27 292.83,179.27 282.93,179.27C273.03,179.27 269.43,187.37 268.03,193.17C266.73,198.97 266.73,207.07 276.63,207.07ZM313.43,210.87L311.53,210.87L311.53,201.77L315.23,201.77C317.63,201.77 319.03,202.47 319.03,204.47C319.03,206.07 317.93,206.77 316.53,206.87L319.13,210.87L317.13,210.87L314.73,206.97L313.43,206.97L313.43,210.87ZM313.43,205.67L315.33,205.67C316.33,205.67 317.23,205.57 317.23,204.37C317.23,203.27 316.13,203.17 315.23,203.17L313.43,203.17L313.43,205.67ZM315.03,198.07C319.73,198.07 323.93,201.27 323.93,206.27C323.93,211.27 319.73,214.47 315.03,214.47C310.43,214.47 306.13,211.27 306.13,206.27C306.13,201.27 310.33,198.07 315.03,198.07ZM308.33,206.37C308.33,209.97 311.23,212.87 315.03,212.87C318.83,212.87 321.83,209.97 321.83,206.37C321.83,202.77 318.93,199.77 315.03,199.77C311.23,199.77 308.33,202.67 308.33,206.37Z" style="fill:rgb(227,24,55);fill-rule:nonzero;"/>
    </g>
</svg>

<svg clip-rule="evenodd" fill-rule="evenodd" stroke-linejoin="round" stroke-miterlimit="1.41421" viewBox="0 0 560 400" xmlns="http://www.w3.org/2000/svg"><path d="m317.63 241.47c-30.5 16.7-59.5 25-108.6 27-26.9-.4-44.6-.7-60.1-3.2-28-4.5-42-12.1-42-12.1s39.9 10.5 99.9 6.8c82-5.1 151.8-46 151.7-104-.1-34.6-22.7-71.7-51.7-89.3-27.9-17-49.8-23-70-27.5-25.1-5.7-66.9-5.6-77.7-3.8 59.8-9.8 110.6.7 156.4 23.3 34.7 17.1 61.4 57.1 63.5 86.4 3.1 41.3-18.9 73.1-61.4 96.4zm-8.8-12.4c-9.3 3.9-62.9 22.3-121.6 21.6-30.6-.4-73.6-9.8-99.7-24.7-27.2-15.5-47.2-46.8-48.1-78.4-1.5-53.1 58.4-96.8 133.7-103.3 31.2-2.7 53.1 1.3 67.7 3.2 21.4 2.8 60.3 17.5 60.3 17.5s-57.8-32.7-123.6-27.9c-45.2 3.2-74.5 12.8-102.2 28.9-38.6 22.4-58 52.1-54.2 89.8 2.7 26.7 24 60.7 54.6 78.7 24 14.1 59.3 24 111 24 49.1-.1 89.7-15.7 122.1-29.4zm-186.3-98.6c4.1-16.7 12-51.4 12-51.4h-23.4s-6.9 30.2-11 44.9c-.7 2.5-1.9 5.5-4.6 5.9-7.6.2-22.7.2-22.7.2l-3.6 16.1s31.8.2 36.2-1.3c7.6-2 13.9-6.9 17.1-14.4zm24.2 17.9c-4.6 0-8.6-1.4-11.5-3.5-3.8-2.8-5.7-7-6.1-11.1 0-.8 0-2.8.3-5.7.4-2.7 1.2-6.4 2.6-10 7-18.2 20-19.1 25.4-19.1 9.2 0 14 4.6 16 9.2 2.8 6.8 1.5 13.1 0 18.6h-31.4v.1c-.8 2.5-1.3 5.1-.1 7.5 2 3.8 5.8 4.7 9.4 4.1 3.6-.7 7.1-2.8 8.2-5.2h12c-4 9-16.5 15.1-24.8 15.1zm-2.9-29.6h18.7c.7-3.5.8-9.4-6.4-9.7-7.4-.3-11.4 5.3-12.3 9.7zm68.3 27.5h12.5l23.2-46.5h-12.6l-14.4 32.6.2-32.6h-12.6l-13.9 32.6-.3-32.6h-12.7l3.1 46.5h12.6l14.5-32.7zm49.1 2.1c-4.6 0-8.7-1.4-11.5-3.5-3.7-2.8-5.7-7-6.1-11.1 0-.8 0-2.8.3-5.7.4-2.7 1.2-6.4 2.6-10 7-18.2 20-19.1 25.4-19.1 9.2 0 14 4.6 16 9.2 2.8 6.8 1.4 13.1 0 18.6h-31.4v.1c-.8 2.5-1.3 5.1-.1 7.5 2 3.8 5.8 4.7 9.4 4.1 3.6-.7 7.1-2.8 8.2-5.2h12c-4 9-16.5 15.1-24.8 15.1zm-2.9-29.6h18.7c.8-3.5.8-9.4-6.4-9.7-7.4-.3-11.4 5.3-12.3 9.7zm33.1 27.5h12.2l13.5-62.6h-12.2zm-204 38.8c6.5-28.9 30.2-32.4 38.9-32.4s30.8 3.5 24.2 32.4c-6.6 29-30.2 32.5-38.9 32.5s-30.8-3.5-24.2-32.5zm26.6 21.6c7.4 0 18.8-4.3 22.7-21.6s-5.6-21.5-13-21.5-18.8 4.3-22.7 21.5c-3.8 17.4 5.6 21.6 13 21.6zm85.8-22.5c1.9-12.9-9-15.1-18.5-15.1-15.2 0-21.6 8.6-23.1 15.3-3.9 17.1 27.6 11.4 25.9 19-.4 1.7-2.6 4.7-9.2 4.7-8.1 0-10-2.8-9.1-6.7h-13.2c-2.3 12.2 8.8 15.8 19.9 15.8 7.6 0 21.9-2.4 24.9-15.7 3.8-16.8-27.8-11.6-26.2-18.8.5-2 1.9-4.5 8.9-4.5 6.9 0 7.3 3.1 7.2 6zm51.4 2.5c2.1-14.2-9.8-17.5-17.5-17.5-16.5 0-25.8 10.5-29.1 25.3-2.1 9.6-.9 22.8 17.4 22.8 17.9 0 24.8-13.2 26.3-17.9h-13.2c-.5 2.2-4 8-10.5 8-9.7 0-7.6-9.9-6.5-14.9 1.3-5.7 5.2-13.2 13.2-13.2 6.1-.4 7 4.4 6.9 7.4zm3.6 6.5c3.7-16.5 17.3-24.1 30.4-24.1s23.2 7.5 19.5 24.1c-3.8 16.4-17.3 24-30.4 24s-23.2-7.6-19.5-24zm21.8 13.9c9.9 0 13.5-8.1 14.9-13.9 1.3-5.9 1.3-13.9-8.6-13.9s-13.5 8.1-14.9 13.9c-1.3 5.8-1.3 13.9 8.6 13.9zm36.8 3.8h-1.9v-9.1h3.7c2.4 0 3.8.7 3.8 2.7 0 1.6-1.1 2.3-2.5 2.4l2.6 4h-2l-2.4-3.9h-1.3zm0-5.2h1.9c1 0 1.9-.1 1.9-1.3 0-1.1-1.1-1.2-2-1.2h-1.8zm1.6-7.6c4.7 0 8.9 3.2 8.9 8.2s-4.2 8.2-8.9 8.2c-4.6 0-8.9-3.2-8.9-8.2s4.2-8.2 8.9-8.2zm-6.7 8.3c0 3.6 2.9 6.5 6.7 6.5s6.8-2.9 6.8-6.5-2.9-6.6-6.8-6.6c-3.8 0-6.7 2.9-6.7 6.6z" fill="#e31837" fill-rule="nonzero" transform="matrix(.844691 0 0 .844691 111.071 73.2258)"/></svg>
